X: 38892
T: Sunset On The Ouseburn
R: reel
M: 4/4
K: Dmajor
DE|:FA, (3A,A,A, FEFA|BdAd BdAG|FA, (3A,A,A, DCDE|FEDC B,2DE|
FA, (3A,A,A, FEFA|BdAd Bcde|faec dBAc|BFFE F2DE:|
|:FABF AFEF|AB (3cBA B2Bc|dcde faec|dBAF EFDE|
FABF AFEF|AB (3cBA B2 b2|afec dfec|1 dBAF D2DE:|2 dBAF D4||

